picto/emergency-exit-left-framed.svg

<svg class="color-immutable" width="30" height="30" viewBox="0 0 30 30" fill="none" xmlns="http://www.w3.org/2000/svg"><path d="M30 0H0V30H30V0Z" fill="#237F52"/><path d="M25.5 3C26.325 3 27 3.675 27 4.5V25.5C27 26.325 26.325 27 25.5 27H4.5C3.675 27 3 26.325 3 25.5V4.5C3 3.675 3.675 3 4.5 3H25.5ZM25.5 2.625H4.5C3.46613 2.625 2.625 3.46613 2.625 4.5V25.5C2.625 26.5339 3.46613 27.375 4.5 27.375H25.5C26.5339 27.375 27.375 26.5339 27.375 25.5V4.5C27.375 3.46613 26.5339 2.625 25.5 2.625Z" fill="white"/><path d="M7.06519 6.00015V22.757L8.31266 24H12.1035L11.5537 23.414C11.2967 23.138 11.4207 22.8101 11.8314 22.681C12.2431 22.5511 12.785 22.6701 13.0422 22.9444L14.0325 24H20.0552L18.8155 22.757V18.3916L21.8988 18.393C22.4717 18.3914 22.9348 17.9291 22.9348 17.3564C22.9348 16.7858 22.4717 16.3218 21.8988 16.3218H18.8155V6.00015H7.06519ZM10.2069 8.96295C10.2069 9.70838 9.60214 10.313 8.85769 10.313C8.11159 10.313 7.50686 9.7083 7.50686 8.96295C7.50686 8.21678 8.11159 7.61295 8.85769 7.61295C9.60206 7.61295 10.2069 8.21678 10.2069 8.96295ZM7.31936 14.4131C7.31936 14.1254 7.55179 13.8938 7.83949 13.8938H9.81266V11.4695C9.81266 10.5143 10.5878 9.73785 11.5454 9.73785H13.9655C14.149 9.73785 14.3261 9.81165 14.4552 9.94148L16.4985 11.9841C16.5895 12.0743 16.6407 12.197 16.6407 12.3269C16.6407 12.5935 16.4233 12.811 16.1557 12.811C16.0266 12.811 15.904 12.7605 15.8121 12.6695L13.8856 10.7413H12.5138L18.4362 16.6644H21.8993C22.2819 16.6644 22.5912 16.9739 22.5912 17.3577C22.5912 17.7393 22.2819 18.0494 21.8993 18.0494H18.0507C17.8671 18.0494 17.6914 17.9781 17.5616 17.8474L14.8104 15.0962L12.2026 17.7027V21.512C12.2026 21.8944 11.892 22.2053 11.5096 22.2053C11.1272 22.2053 10.8177 21.8944 10.8177 21.512V17.3189C10.8177 17.134 10.8892 16.9592 11.0199 16.8276L13.0951 14.7525L10.8177 12.4738V14.4131C10.8177 14.7005 10.5848 14.933 10.2979 14.933H7.83949C7.55179 14.933 7.31936 14.7006 7.31936 14.4131Z" fill="white"/></svg>

<svg class="color-immutable" width="30" height="30" viewBox="0 0 30 30" fill="none" xmlns="http://www.w3.org/2000/svg"><g clip-path="url(#a)"><path d="M30 0H0v30h30V0Z" fill="#237F52"/><path d="M25.5 3c.825 0 1.5.675 1.5 1.5v21c0 .825-.675 1.5-1.5 1.5h-21c-.825 0-1.5-.675-1.5-1.5v-21C3 3.675 3.675 3 4.5 3h21Zm0-.375h-21A1.877 1.877 0 0 0 2.625 4.5v21c0 1.034.841 1.875 1.875 1.875h21a1.877 1.877 0 0 0 1.875-1.875v-21A1.877 1.877 0 0 0 25.5 2.625Z" fill="#fff"/><path d="M7.065 6v16.757L8.313 24h3.79l-.55-.586c-.256-.276-.132-.604.278-.733.412-.13.954-.01 1.211.263l.99 1.056h6.023l-1.24-1.243v-4.365l3.084.001a1.037 1.037 0 0 0 0-2.071h-3.084V6H7.066Zm3.142 2.963a1.35 1.35 0 1 1-2.7 0 1.35 1.35 0 0 1 2.7 0Zm-2.888 5.45c0-.288.233-.52.52-.52h1.974V11.47c0-.955.775-1.731 1.732-1.731h2.42c.184 0 .361.074.49.203l2.043 2.043a.485.485 0 0 1-.686.685l-1.926-1.928h-1.372l5.922 5.923H21.9a.692.692 0 1 1 0 1.385h-3.848a.687.687 0 0 1-.49-.202l-2.75-2.75-2.608 2.606v3.809a.694.694 0 0 1-1.385 0v-4.193c0-.185.071-.36.202-.491l2.075-2.075-2.277-2.28v1.94a.52.52 0 0 1-.52.52H7.839a.52.52 0 0 1-.52-.52Z" fill="#fff"/></g><defs><clipPath id="a"><path fill="#fff" d="M0 0h30v30H0z"/></clipPath></defs></svg>
